src/images/check.svg

<svg fill="none" height="200" viewBox="0 0 237 200" width="237" xmlns="http://www.w3.org/2000/svg"><path d="m149.767.558572c-.949.27779-2.153.740778-2.662.995418-1.736.90281-3.82 2.639-4.885 4.0974-.602.78707-11.482 20.34811-24.191 43.45101-17.315 31.4134-23.2877 42.4556-23.7275 43.8445-.463 1.4352-.6019 2.3381-.6019 3.9354.0231 3.8887 1.3195 6.9447 4.2131 9.8387 2.5003 2.5 5.3243 4.028 8.7503 4.745 5.278 1.135 10.556-.949 13.774-5.394 1.458-2.037 46.97-85.0033 47.548-86.7163.764-2.1992.926-5.2317.44-7.5466-.972-4.58357-4.421-8.84301-8.588-10.60235-3.149-1.342653-6.991-1.574145-10.07-.648178z" fill="#fafaed"/><path d="m218.659.373397c-2.709.648173-4.699 1.828783-6.852 4.004803l-1.968 2.01398-42.247 76.78582-42.224 76.786-.741-.741c-.394-.417-14.468-15.765-31.2746-34.122-33.057-36.0663-31.8764-34.8625-35.4877-36.1357-2.2686-.7871-6.0419-.9955-8.38-.4399-5.9262 1.389-10.394 6.3429-11.2968 12.5236-.5556 3.866.6714 8.218 3.1946 11.251.463.578 18.0564 19.792 39.0758 42.687 24.8857 27.107 38.6357 41.923 39.3537 42.409 4.676 3.079 10.324 3.449 15.301.995 2.038-.995 4.26-2.87 5.371-4.491.648-.949 93.662-169.8219 94.912-172.322 1.296-2.5927 1.528-3.6344 1.528-6.7595 0-2.5464-.07-3.102-.649-4.7456-1.643-4.79188-5.764-8.56519-10.579-9.699503-1.852-.4398338-5.208-.4398338-7.037 0z" fill="#374649"/><path d="m12.4923 121.235c-1.2037.185-3.63439 1.065-4.97704 1.76-2.12972 1.111-4.67613 3.796-5.83359 6.111-2.384364 4.745-2.22232 10.209.41669 14.561.60187.972 33.86724 37.548 45.83534 50.349 2.8474 3.056 4.2595 4.098 6.9911 5.139 1.8056.695 2.0602.718 5.1391.718 2.9399 0 3.4029-.07 4.9539-.625 4.653-1.69 8.1948-5.579 9.4449-10.348.2546-.972.3935-2.338.3703-3.819-.0231-2.755-.6944-5.186-2.0834-7.478-1.088-1.759-47.4789-52.409-49.1457-53.636-2.9631-2.176-7.5929-3.311-11.1116-2.732z" fill="#fafaed"/></svg>

<svg width="237" height="200" viewBox="0 0 237 200" fill="none" xmlns="http://www.w3.org/2000/svg">
<path d="M149.767 0.558572C148.818 0.836362 147.614 1.29935 147.105 1.55399C145.369 2.4568 143.285 4.19299 142.22 5.65139C141.618 6.43846 130.738 25.9995 118.029 49.1024C100.714 80.5158 94.7413 91.558 94.3015 92.9469C93.8385 94.3821 93.6996 95.285 93.6996 96.8823C93.7227 100.771 95.0191 103.827 97.9127 106.721C100.413 109.221 103.237 110.749 106.663 111.466C111.941 112.601 117.219 110.517 120.437 106.072C121.895 104.035 167.407 21.0687 167.985 19.3557C168.749 17.1565 168.911 14.124 168.425 11.8091C167.453 7.22553 164.004 2.96609 159.837 1.20675C156.688 -0.135903 152.846 -0.367395 149.767 0.558572Z" fill="#FAFAED"/>
<path d="M218.659 0.373397C215.95 1.02157 213.96 2.20218 211.807 4.3782L209.839 6.39218L167.592 83.178L125.368 159.964L124.627 159.223C124.233 158.806 110.159 143.458 93.3524 125.101C60.2954 89.0347 61.476 90.2385 57.8647 88.9653C55.5961 88.1782 51.8228 87.9698 49.4847 88.5254C43.5585 89.9144 39.0907 94.8683 38.1879 101.049C37.6323 104.915 38.8593 109.267 41.3825 112.3C41.8455 112.878 59.4389 132.092 80.4583 154.987C105.344 182.094 119.094 196.91 119.812 197.396C124.488 200.475 130.136 200.845 135.113 198.391C137.151 197.396 139.373 195.521 140.484 193.9C141.132 192.951 234.146 24.0781 235.396 21.578C236.692 18.9853 236.924 17.9436 236.924 14.8185C236.924 12.2721 236.854 11.7165 236.275 10.0729C234.632 5.28102 230.511 1.50771 225.696 0.373397C223.844 -0.0664368 220.488 -0.0664368 218.659 0.373397Z" fill="#374649"/>
<path d="M12.4923 121.235C11.2886 121.42 8.85791 122.3 7.51526 122.995C5.38554 124.106 2.83913 126.791 1.68167 129.106C-0.702694 133.851 -0.54065 139.315 2.09836 143.667C2.70023 144.639 35.9656 181.215 47.9337 194.016C50.7811 197.072 52.1932 198.114 54.9248 199.155C56.7304 199.85 56.985 199.873 60.0639 199.873C63.0038 199.873 63.4668 199.803 65.0178 199.248C69.6708 197.558 73.2126 193.669 74.4627 188.9C74.7173 187.928 74.8562 186.562 74.833 185.081C74.8099 182.326 74.1386 179.895 72.7496 177.603C71.6616 175.844 25.2707 125.194 23.6039 123.967C20.6408 121.791 16.011 120.656 12.4923 121.235Z" fill="#FAFAED"/>
</svg>
